X:1
T:Tristis est anima mea - all
T:Tristis est anima mea - all
T:4 parts
T:Michael Haydn
C:Michael Haydn
%%score [ 1 2 3 4 ]
L:1/8
Q:1/4=92
M:4/4
K:Bb
V:1 treble nm="Soprano" snm="S."
V:2 treble nm="Alto" snm="A."
V:3 treble-8 nm="Tenor" snm="T."
V:4 bass nm="Bass" snm="B."
V:1
!mp! G4 G2 G2 | G4 G2 G2 | G4 G4 | G4 G2 G2 |!<(! G8!<)! |!>(! !fermata!^F8!>)! |!<(! B4 c4!<)! | %7
w: Tris- tis est|a- ni- ma|me- a|us- que ad|mor-|tem,|su- ti-|
 d3 e !breath!f2 d2 | c2 c2 B2 B2 |!>(! B2 A2 z2!<(! AA!>)!!<)! |"^cresc." B4 c2 c2 | %11
w: ne- te hic, et|vi- gi- la- te|me- cum: nunc vi-|de- bi- tis|
!<(! A4 !breath!B2 B2!<)! | c2 e3!>(! e e2!>)! | d4 z4 |!f! B8 | =B2 B2 B2 B2 | cd e2 z2 e2 | %17
w: tur- bam, quae|cir- cum- da- bit|me.|Vos|fu- gam ca- pi-|e- * tis, et|
 c6 B2 | _A6 !breath!G2 |!>(! ^F4 F4!>)! | G4 G2 G2 | G2 ^F=E =F4 | !breath!!fermata!G8 | %23
w: e- go|va- dam|im- mo-|la- ri pro|vo- * * *|bis.|
!mf! =F6 F2 |!<(! A2 A2 A2 A2!<)! |!>(! B4 !breath!B2 B2!>)! | c4!<(! c2 c2!<)! | d3 d d2 d2 | %28
w: Ec- ce|ap- pro- pin- quat|ho- ra et|Fi- li- us|ho- mi- nis tra-|
!<(! =e4 e2 e2!<)! |!f! f4 !breath!c4 |!>(! B2 B2 B4!>)! | A4 z4 |!f! B8 | =B2 B2 B2 B2 | %34
w: de- tur in|man- us|pec- ca- to-|rum.|Vos|fu- gam ca- pi-|
 cd e2 z2 e2 | c6 _B2 | _A6 !breath!G2 |!>(! ^F4 F4!>)! | G4 G2[Q:1/4=80] G2 | A2 ^F=E F4 | %40
w: e- * tis, et|e- go|va- dam|im- mo-|la- ri pro|vo- * * *|
 !fermata!G8 |] %41
w: bis.|
V:2
!mp! D4 D2 D2 | D4 D2 D2 | E4 B,4 | B,4 B,2 D2 |!<(! =E8!<)! |!>(! !fermata!D8!>)! | %6
!<(! F4 F4!<)! | F3 F !breath!F2 F2 | G2 F2 D2 G2 |!>(! F2 F2 z2!<(! FF!>)!!<)! | %10
"^cresc." G4 G2 G2 |!<(! F4 !breath!F2 F2!<)! | F2 F3!>(! F F2!>)! | F4 z4 |!f! F8 | F2 F2 F2 _A2 | %16
 GF E2 z2 E2 | G6 G2 | E6 !breath!E2 |!>(! D4 D4!>)! | =E4 E2 E2 | D8 | !breath!D8 |!mf! D6 D2 | %24
!<(! E2 E2 E2 E2!<)! |!>(! D4 !breath!D2 F2!>)! | F4!<(! F2 F2!<)! | F3 F F2!<(! F2!<)! | %28
 G4 G2 G2 |!f! F4 !breath!F4 |!>(! F2 F2 =E4!>)! | F4 z4 |!f! F8 | F2 F2 F2 _A2 | GF E2 z2 E2 | %35
 G6 G2 | E6 !breath!E2 |!>(! D4 D4!>)! | =E4 E2 E2 | D8 | !fermata!D8 |] %41
V:3
!mp! B4 B2 B2 | B4 B2 B2 | B4 G4 | B4 B2 B2 |!<(! A4 B2 A2!<)! |!>(! !fermata!A8!>)! | %6
 d4!<(! A4!<)! | B3 c !breath!d2 d2 | =c2 f2 f2 e2 |!>(! fc c2 z2!<(! cc!>)!!<)! | %10
"^cresc." d4 c2 c2 |!<(! c4 !breath!B2 F2!<)! | A2 c3!>(! c c2!>)! | B4 z4 |!f! d8 | d2 d2 d2 d2 | %16
 G2 G2 z2 c2 | e6 d2 | c6 !breath!B2 |!>(! A4 A4!>)! | B4 B2 B2 | A8 | !breath!G8 |!mf! B6 B2 | %24
!<(! c2 c2 c2 c2!<)! |!>(! F4 !breath!F2 d2!>)! |!<(! A4 A2 A2!<)! | B3 B B2 d2 | %28
!<(! c4 c2 c2!<)! |!f! c4 !breath!c4 |!>(! d2 d2 B4!>)! | c4 z4 |!f! d8 | d2 d2 d2 d2 | %34
 G2 G2 z2 c2 | e6 d2 | c6 !breath!B2 |!>(! A4 A4!>)! | B4 B2 B2 | A8 | !fermata!G8 |] %41
V:4
!mp! G,4 G,2 G,2 | F,4 F,2 F,2 | E,4 E,4 | D,4 D,2 D,2 |!<(! ^C,8!<)! |!>(! !fermata!D,8!>)! | %6
w: Tris- tis est|a- ni- ma|me- a|us- que ad|mor-|tem,|
 B,,4!<(! B,,4!<)! | B,,3 B,, !breath!B,,2 B,2 | B,2 A,2 G,2 C,2 | %9
w: su- ti-|ne- te hic, et|vi- gi- la- te|
!>(! F,2 F,2 z2!<(! F,F,!>)!!<)! |"^cresc." F,4 E,2 E,2 |!<(! E,4 !breath!D,2 D,2!<)! | %12
w: me- cum: nunc vi-|de- bi- tis|tur- bam, quae|
 C,2 A,,3!>(! A,, A,,2!>)! | B,,4 z4 |!f! B,8 | _A,2 A,2 G,2 F,2 | E,D, C,2 z2 C,2 | C,4 C,4 | %18
w: cir- cum- da- bit|me.|Vos|fu- gam ca pi-|e- * tis, et|e- go|
 C,4 !breath!C,4 |!>(! C,4 C,4!>)! | ^C,4 C,2 C,2 | D,8 | !breath!G,,8 |!mf! B,,6 B,,2 | %24
w: va- dam|im- mo-|la- ri pro|vo-|bis.|Ec- ce|
!<(! B,,2 B,,2 B,,2 B,,2!<)! |!>(! B,,4 !breath!B,,2 B,,2!>)! |!<(! B,,4 B,,2 B,,2!<)! | %27
w: ap- pro- pin- quat|ho- ra et|Fi- li- us|
 B,,3 B,, B,,2 B,,2 |!<(! B,,4 B,,2 B,,2!<)! |!f! A,,4 !breath!A,,4 |!>(! G,,2 G,,2 G,,4!>)! | %31
w: ho- mi- nis tra-|de- tur in|man- us|pec- ca- to-|
 F,,4 z4 |!f! B,8 | _A,2 A,2 G,2 F,2 | E,D, C,2 z2 C,2 | C,4 C,4 | C,4 !breath!C,4 | %37
w: rum.|Vos|fu- gam ca- pi-|e- * tis, et|e- go|va- dam|
!>(! C,4 C,4!>)! | ^C,4 C,2 C,2 | D,8 | !fermata!G,,8 |] %41
w: im- mo-|la- ri pro|vo-|bis.|

